X: 9026
T: Da Boys O' Da Lounge
R: reel
M: 4/4
K: Gminor
c|dB (3BBB cABF|DFBc dBFD|EGce DFBd|cABG AFBc|
dB (3BBB cABF|DFBc dBFD|EGce DFBd|cFAc B3:|a|
bB (3BBB gBfB|dBcA BGFD|EGce DFBd|cFAc =efga|
bB (3BBB gBfB|dBcA BGFD|EGce DFBd|cFAc B3a|
bB (3BBB gBfB|dBcA BGFD|EGce DFBd|cABG AFBc|
dB (3BBB cABF|DFBc dBFD|EGce DFBd|cFAc B3||

